tools/download-figma-icons/icons/solid/map.svg

<svg width="24" height="24" viewBox="0 0 24 24" fill="none" xmlns="http://www.w3.org/2000/svg">
<path fill-rule="evenodd" clip-rule="evenodd" d="M5.10001 3.33753C4.13327 3.33753 3.34502 4.12502 3.34502 5.10001C3.34502 6.0675 4.13327 6.85499 5.10001 6.85499C6.07575 6.85499 6.85574 6.0675 6.85574 5.10001C6.85574 4.12502 6.07575 3.33753 5.10001 3.33753ZM0 5.09995C0 2.28748 2.28748 0 5.09995 0C7.91242 0 10.2006 2.28748 10.2006 5.09995C10.2006 8.49741 5.78244 12.3974 5.59494 12.5624C5.45319 12.6899 5.27995 12.7499 5.09995 12.7499C4.9207 12.7499 4.74745 12.6899 4.6057 12.5624C4.49245 12.4649 2.79822 10.9649 1.49998 9.04491C1.08749 8.44491 0.719993 7.79242 0.443245 7.13243C0.173248 6.45743 0 5.76744 0 5.09995ZM23.9999 20.985V4.51518C23.9999 4.17769 23.7749 3.87769 23.4531 3.78769L16.8232 1.95021C16.65 1.90521 16.47 1.91271 16.305 1.98771L11.625 4.19268C11.6625 4.47768 11.685 4.77768 11.685 5.07768C11.685 5.33267 11.6625 5.58767 11.625 5.85017C11.0497 9.96603 6.129 14.3721 5.75264 14.7091C5.74633 14.7147 5.74129 14.7192 5.73757 14.7226C5.55758 14.8801 5.32583 14.9626 5.10008 14.9626C4.87508 14.9626 4.64259 14.8801 4.46259 14.7226C4.45356 14.7141 4.4372 14.6992 4.41405 14.6781C4.12935 14.4187 2.81794 13.2239 1.50012 11.5801C0.975123 10.9426 0.457628 10.2301 0.000132696 9.48013V20.2125C0.000132696 20.5125 0.187631 20.79 0.472628 20.9025L7.97255 23.9475C8.06255 23.985 8.16005 24 8.25005 24C8.36255 24 8.47505 23.9775 8.58005 23.925L16.6957 19.9425L23.0549 21.705C23.2724 21.7725 23.5199 21.7275 23.7074 21.585C23.8949 21.4425 23.9999 21.2175 23.9999 20.985Z" fill="black"/>
</svg>

<svg width="24" height="24" viewBox="0 0 24 24" fill="none" xmlns="http://www.w3.org/2000/svg"><path fill-rule="evenodd" clip-rule="evenodd" d="M5.1 3.338a1.76 1.76 0 0 0 0 3.517c.976 0 1.756-.788 1.756-1.755 0-.975-.78-1.762-1.756-1.762ZM0 5.1C0 2.287 2.287 0 5.1 0c2.812 0 5.1 2.287 5.1 5.1 0 3.397-4.418 7.297-4.605 7.462a.728.728 0 0 1-.495.188.728.728 0 0 1-.494-.188c-.114-.097-1.808-1.597-3.106-3.517-.413-.6-.78-1.253-1.057-1.913C.173 6.457 0 5.767 0 5.1Zm24 15.885V4.515a.756.756 0 0 0-.547-.727l-6.63-1.838a.77.77 0 0 0-.518.038l-4.68 2.205c.037.285.06.585.06.885 0 .255-.023.51-.06.772-.575 4.116-5.496 8.522-5.872 8.86a.976.976 0 0 1-.653.254.978.978 0 0 1-.637-.241l-.049-.045c-.285-.26-1.596-1.454-2.914-3.098A18.472 18.472 0 0 1 0 9.48v10.732c0 .3.188.578.473.69l7.5 3.046c.09.037.187.052.277.052a.732.732 0 0 0 .33-.075l8.116-3.983 6.359 1.763a.732.732 0 0 0 .652-.12.753.753 0 0 0 .293-.6Z" fill="currentColor"/></svg>
